X:056 
T:Finnegan's Widow* (polka)  
F:file ID: cre.4/056finn_w
S:BPC < Barrett < Collins
L:1/8
B:CRE4.083: gan ainm (without repeats)
M:2/4
Q:120
R:polka
K:G
A|B2 B>A|B2 AG|g2 ge|dB A2|
B2 B>A|B2 AG|EG FA|G2 G :|
|:e|gf ga|g>f ed|gf ge|dB A2|
gf ga|g>f ed|eg fa|g2 g :|

%%%

